X:35
%%etbk:tnset id:12,pos:3,rep:3x,ant:
%%etbk:color #efebd6
%%etbk:pldat 2016-07-25T19:19,2016-07-18T19:42,2016-07-15T15:26,2016-03-22T17:19,2016-03-20T15:30,2015-07-08T16:19,2015-02-04T17:18,2015-01-21T17:55,2015-01-20T16:22,2015-01-17T14:42,2015-01-13T18:05,2015-01-10T15:42,2014-12-15T16:18,2014-12-11T18:17,2014-12-10T16:25,2014-12-09T16:56,2014-12-08T18:14,2014-12-07T13:17,2014-12-03T17:07,2014-11-25T18:49,2014-11-22T16:13,2014-11-10T18:49,2014-07-05T14:24,2014-04-30T16:11,2014-04-27T15:00,2014-04-02T15:50,2014-03-21T16:55,2014-03-19T19:49,2014-02-09T10:45,2013-11-21T18:06,2013-11-18T18:37,2013-11-03T14:57,2013-09-29T14:44,2013-09-17T10:36,2013-08-28T16:12,2013-05-21T15:52,2013-05-07T19:45,2013-05-06T18:19
T: Lilac, The
Z: Piano Box Version by Martin Fleischmann
H: Created 2013-02-19 /  Last Modified 2016-07-15
M: 4/4
L: 1/8
R: reel
K: Ador
|:!5!e3d !3!c!1!A!2!A!1!A | !3!cded !3!c!1!A !3!(3A!2!A!1!A | !5![e3A]d !3!c!1!AAA | !3!BA!1!GA B!4!c!3!d!5!g|
!4!e3!3!d !2!c!1!A (3AAA | !3!cd ed c!5!AzA | !5!a3g !2!e3!1!d | !4!c!2!A!1!G!3!B !2!!1!A4:|
!2!e2 !5!ag !2!e2e!1!d | !3!cded cAAA | !5!e2ed !3!c2c!4!d | !2!e2!4!a!5!b !4!a!3!g!2!e!1!d |
!2!e2 !5!ag !2!e2e!1!d | !3!cded !3!c!1!A (3AAA | !5!e3d !3!c!1!AAA | !3!BA!1!G!3!B !2!!1!A4:||


